X:67
T:Saint Davids 109. WHG.066
R:hymn
S:W.H.Giles MS,Bampton,Oxfordshire,1839p66
O:England
H:donated by Mrs W.R.Kettlewell to VWML,Apr 1927.
H:Thomas Ravenscroft,The Whole Booke of
H:Psalmes (London: 1621) “Christ is gone up”.
H:Christ is gone up; yet ere He passed
H:From earth, in Heav’n to reign,
H:He formed one holy Church to last
H:Till He should come again.
A:Bampton, Oxfordshire
Z:PJHeadford – VMP 2009
M:C
L:1/2
Q:1/2=100
K:F
F|cf|Ac|BA|Gz/F/|cF|B{c}d|c||c|
dA|cF|BA|Gz/c/|(F{G})A|(B3/4A/4)G|HF2|]

